X: 19
T: No_113_Song_of_the_Beggars'_Dance.krn
N: Derived from No_113_Song_of_the_Beggars'_Dance.krn
%%abc-version 2.0
%%abcx-abcm2ps-target-version 5.9.1 (29 Sep 2008)
%%abc-creator hum2abc beta
%%abcx-conversion-date 2019/03/15 08:35:44
%%humdrum-veritas 1736443678
%%humdrum-veritas-data 2807115841
%%linebreak <none>
%%barnumbers 0
L: 1/8
M: 3/4
K: G clef=bass
[K:clef=bass][M:3/4]z4A,G, | 
A,2A,A, A, z | 
D2CD A,A, ||  
[M:2/4]G,2E,D, ||  
[M:3/4]G,2G,G, G, z ||  
[M:2/4]G,E, D,E, | 
G,E, D,E, | 
D,2D,D, | 
D, z A,G, ||  
[M:3/4]A,2A,A, A, z ||  
[M:2/4]D2CD | 
A,D G,G, | 
G,2F,D, ||  
[M:3/4]G,2G,G, G, z ||  
[M:2/4]G,E, D,E, | 
G,E, D,E, ||  
[M:3/4]D,2D,D, D, z |]  



